X:1
T:Call it what you Please
M:6/8
L:1/8
R:Jig
B:John Hall – “A Selection of Strathspeys Reels, Waltzes & Irish Jigs” (c. 1818, p. 31)
B:  https://digital.nls.uk/special-collections-of-printed-music/archive/104981834
N:Hall (1788-1862) was a music teacher in Ayr, Scotland. His dancing master’s ‘kit’
N:(a small fiddle) used in his dancing lessons, is still preserved.
Z:AK/Fiddler’s Companion
K:Amin
E|A>^GA ABc|BcA B^GE|A^GA ABc|Bcd {^d}e2=d|
cBA ABc|BcA B^GE|A^GA Bcd|Be^G {G}A2:|
|:B|c>Bc ceg|a>gf/e/ dBG|cBc ceg|gab c’2b|
agf edc|Bcd B^GE|AA,B, CDE|^GEG A2:|]

